X: 32999
T: Pretty Maggie Morrissey
R: hornpipe
M: 4/4
K: Gmajor
B>c|d>BG>B c>AF>A|(3GFG A>F G>AB>c|d>gf>g e>fg>e|d>BG>B A2B>c|
d>BG>B c>AF>A|(3GFG A>F G>AB>c|d>gf>g e>cA>F|G2B2G2:|
|:B>c|d>gf>g e>gf>g|d>g (3gfg e>gf>g|d>gf>g e>fg>e|d>BG>B A2 B>c|
d>BG>B c>AF>A|G>DB,>D G>AB>c|d>gf>g e>cA>F|G2B2G2:|

